assets/icons/camera/photo-filed.svg

<?xml version="1.0" encoding="UTF-8" standalone="no"?>
<svg viewBox="0 0 24 24" height="24" width="24" version="1.1" id="svg4" sodipodi:docname="photo-filed.svg" inkscape:version="1.1 (ce6663b3b7, 2021-05-25)"
   xmlns:inkscape="http://www.inkscape.org/namespaces/inkscape"
   xmlns:sodipodi="http://sodipodi.sourceforge.net/DTD/sodipodi-0.dtd"
   xmlns="http://www.w3.org/2000/svg"
   xmlns:svg="http://www.w3.org/2000/svg">
   <defs id="defs8" />
   <sodipodi:namedview id="namedview6" pagecolor="#ffffff" bordercolor="#666666" borderopacity="1.0" inkscape:pageshadow="2" inkscape:pageopacity="0.0" inkscape:pagecheckerboard="0" showgrid="true" inkscape:zoom="11.313709" inkscape:cx="-1.1932427" inkscape:cy="3.2261747" inkscape:window-width="1920" inkscape:window-height="1016" inkscape:window-x="0" inkscape:window-y="27" inkscape:window-maximized="1" inkscape:current-layer="svg4">
      <inkscape:grid type="xygrid" id="grid845" />
   </sodipodi:namedview>
   <path id="path1099" style="fill:#808080;fill-opacity:1;fill-rule:evenodd;stroke-width:0.5;stroke-linecap:square" d="M 12 8 C 9.790861 8 8 9.790861 8 12 C 8 14.209139 9.790861 16 12 16 C 14.209139 16 16 14.209139 16 12 C 16 9.790861 14.209139 8 12 8 z M 12.048828 9.0019531 C 13.685823 9.0286001 14.999151 10.362789 15 12 C 15 13.656854 13.656854 15 12 15 C 10.343146 15 9 13.656854 9 12 C 9.0032949 10.402482 10.2579 9.0877656 11.853516 9.0097656 C 11.362771 9.0824355 10.999493 9.5039041 11 10 C 11 10.552285 11.447715 11 12 11 C 12.552285 11 13 10.552285 13 10 C 12.999595 9.4669903 12.581202 9.0279791 12.048828 9.0019531 z " />
   <path id="rect1420" style="fill:#808080;fill-opacity:1;fill-rule:evenodd;stroke-width:0.5;stroke-linecap:square" d="M 6 4 L 6 5 C 4.8245475 5.012925 3.9625856 5.085113 3.2773438 5.4277344 C 2.8029633 5.6649245 2.4414421 6.0749032 2.25 6.5917969 C 2.0585579 7.1086905 2 7.722223 2 8.5 L 2 15.5 C 2 16.277777 2.058558 16.891309 2.25 17.408203 C 2.4414421 17.925097 2.8029634 18.335075 3.2773438 18.572266 C 4.2261041 19.046646 5.500002 19 7.5 19 L 16.5 19 C 18.499998 19 19.773896 19.04665 20.722656 18.572266 C 21.197037 18.335075 21.558558 17.925097 21.75 17.408203 C 21.941442 16.891309 22 16.277777 22 15.5 L 22 8.5 C 22 7.722223 21.94144 7.1086905 21.75 6.5917969 C 21.558558 6.0749032 21.197037 5.6649245 20.722656 5.4277344 C 19.773896 4.9533541 18.499998 5 16.5 5 L 8 5 L 8 4 L 6 4 z M 12 7 C 14.761424 7 17 9.2385763 17 12 C 17 14.761424 14.761424 17 12 17 C 9.2385763 17 7 14.761424 7 12 C 7 9.2385763 9.2385763 7 12 7 z M 18.474609 7 C 18.483131 6.999568 18.491371 7 18.5 7 C 18.776142 7 19 7.2238576 19 7.5 C 19 7.7761424 18.776142 8 18.5 8 C 18.223858 8 18 7.7761424 18 7.5 C 18 7.232487 18.210425 7.0133916 18.474609 7 z " />
</svg>

<svg height="24" width="24" xmlns="http://www.w3.org/2000/svg"><path style="fill:gray;fill-opacity:1;stroke-width:.5;stroke-linecap:square" d="M12 8a4 4 0 1 0 0 8 4 4 0 0 0 0-8zm.049 1.002A3 3 0 1 1 9 12a3 3 0 0 1 2.854-2.99 1 1 0 1 0 .195-.008z"/><path style="fill:gray;fill-opacity:1;stroke-width:.5;stroke-linecap:square" d="M6 4v1c-1.175.013-2.037.085-2.723.428A2.097 2.097 0 0 0 2.25 6.592C2.059 7.109 2 7.722 2 8.5v7c0 .778.059 1.391.25 1.908.191.517.553.927 1.027 1.164.95.475 2.223.428 4.223.428h9c2 0 3.274.047 4.223-.428a2.097 2.097 0 0 0 1.027-1.164c.191-.517.25-1.13.25-1.908v-7c0-.778-.059-1.391-.25-1.908a2.097 2.097 0 0 0-1.027-1.164C19.773 4.953 18.5 5 16.5 5H8V4H6zm6 3a5 5 0 1 1 0 10 5 5 0 0 1 0-10zm6.475 0h.025a.5.5 0 1 1-.025 0z"/></svg>
